launcher/android/assets/skins/day/svg/mapMultiStageStartP0.svg

<svg enable-background="new 0 0 60.00 54.18" height="54.1836" viewBox="0 0 60 54.18" width="60" xmlns="http://www.w3.org/2000/svg"><g fill="#d56416" stroke-linejoin="round" stroke-width=".2"><path d="m .576172 11.8563c-.468445-1.3733-.630005-2.65476-.576172-4.27024.053894-1.6156.32312-3.56494 1.52393-5.02417 1.20089-1.45947 3.33334-2.428711 5.14938-2.56201207 1.81613-.13330093 3.3158.56958007 4.34839 1.88208207 1.0326 1.3125 1.598 3.23511 2.018 4.87475.4201 1.63965.6947 2.99683 1.0501 4.30519.3554 1.3086.7916 2.5687 1.3166 3.8611.5251 1.2925 1.1389 2.6172 1.7165 3.7817.5775 1.1643 1.1187 2.1687 1.3893 2.8215.2706.6531.2706.9546-.8064 1.8593s-3.2309 2.4125-4.4533 3.2256-1.5132.9315-2.0464.7108c-.5331-.2207-1.30852-.7808-2.36934-2.0894-1.06082-1.3085-2.4071-3.3657-3.49484-5.0026-1.08777-1.637-1.91705-2.854-2.71942-4.1949-.80237-1.3408-1.57782-2.8056-2.046328-4.1787z"/><path d="m14.3402 29.1636c1.0878-.867 3.1125-2.4933 4.238-3.2794 1.1254-.7862 1.3516-.7325 1.6424-.4739.2908.2585.6462.7215 1.2008 1.4592.5547.7378 1.3086 1.7503 1.6802 2.8325.3715 1.0825.3607 2.2349-.0297 3.1853-.3904.9505-1.1604 1.699-2.2321 2.0813-1.0715.3824-2.4447.3985-3.3413.1642-.8966-.2342-1.3166-.7189-1.8982-1.4297s-1.3247-1.6478-1.7932-2.2617-.6624-.9047-.6839-1.1039.1292-.3069 1.217-1.1739z"/><path d="m56.8595 23.4459c-.5548-1.3406-1.2797-2.4096-2.3868-3.5875-1.107-1.1777-2.5963-2.464-4.4617-2.7672s-4.107.3768-5.5589 1.4758c-1.452 1.0989-2.1144 2.617-2.0233 4.2844.0912 1.6676.9358 3.4849 1.703 4.9937s1.4569 2.7092 2.0539 3.9268c.5971 1.2174 1.1014 2.4517 1.5604 3.769.459 1.3174.8726 2.7175 1.2077 3.9734.3351 1.256.5917 2.3677.8195 3.0366.2279.6689.427.8955 1.8332.8639s4.0194-.3214 5.4744-.5177c1.4549-.1964 1.7516-.2994 2.0062-.8173.2546-.5177.4672-1.4503.4-3.1336-.0672-1.6831-.4143-4.117-.6783-6.0647-.2638-1.9475-.4445-3.4092-.7272-4.9461-.2827-1.5366-.6674-3.1487-1.2221-4.4895z"/><path d="m57.9492 45.5323c-1.3894.0671-3.9838.1824-5.3482.335-1.3643.1527-1.4986.3425-1.5464.7285-.0477.3863-.0089.9688.0616 1.8889.0706.9205.1727 2.1785.6083 3.2367.4356 1.0583 1.2046 1.9167 2.1253 2.3727.9208.4561 1.9933.5098 3.0506.0894 1.0572-.4204 2.0992-1.3148 2.618-2.0828.5187-.7678.5142-1.4092.4816-2.327-.0325-.9179-.093-2.1122-.1465-2.8827-.0535-.7703-.0998-1.1167-.2152-1.2805s-.2997-.1453-1.6891-.0782z"/></g></svg>

﻿<?xml version="1.0" encoding="utf-8"?>
<!DOCTYPE svg PUBLIC "-//W3C//DTD SVG 1.1//EN" "http://www.w3.org/Graphics/SVG/1.1/DTD/svg11.dtd">
<svg xmlns="http://www.w3.org/2000/svg" xmlns:xlink="http://www.w3.org/1999/xlink" version="1.1" baseProfile="full" width="60" height="54.1836" viewBox="0 0 60.00 54.18" enable-background="new 0 0 60.00 54.18" xml:space="preserve">
	<g>
		<g>
			<path fill="#D56416" fill-opacity="1" stroke-width="0.2" stroke-linejoin="round" d="M 0.576172,11.8563C 0.107727,10.483 -0.053833,9.20154 0,7.58606C 0.053894,5.97046 0.32312,4.02112 1.52393,2.56189C 2.72482,1.10242 4.85727,0.133179 6.67331,-0.00012207C 8.48944,-0.133423 9.98911,0.569458 11.0217,1.88196C 12.0543,3.19446 12.6197,5.11707 13.0397,6.75671C 13.4598,8.39636 13.7344,9.75354 14.0898,11.0619C 14.4452,12.3705 14.8814,13.6306 15.4064,14.923C 15.9315,16.2155 16.5453,17.5402 17.1229,18.7047C 17.7004,19.869 18.2416,20.8734 18.5122,21.5262C 18.7828,22.1793 18.7828,22.4808 17.7058,23.3855C 16.6288,24.2902 14.4749,25.798 13.2525,26.6111C 12.0301,27.4242 11.7393,27.5426 11.2061,27.3219C 10.673,27.1012 9.89758,26.5411 8.83676,25.2325C 7.77594,23.924 6.42966,21.8668 5.34192,20.2299C 4.25415,18.5929 3.42487,17.3759 2.6225,16.035C 1.82013,14.6942 1.04468,13.2294 0.576172,11.8563 Z "/>
			<path fill="#D56416" fill-opacity="1" stroke-width="0.2" stroke-linejoin="round" d="M 14.3402,29.1636C 15.428,28.2966 17.4527,26.6703 18.5782,25.8842C 19.7036,25.098 19.9298,25.1517 20.2206,25.4103C 20.5114,25.6688 20.8668,26.1318 21.4214,26.8695C 21.9761,27.6073 22.73,28.6198 23.1016,29.702C 23.4731,30.7845 23.4623,31.9369 23.0719,32.8873C 22.6815,33.8378 21.9115,34.5863 20.8398,34.9686C 19.7683,35.351 18.3951,35.3671 17.4985,35.1328C 16.6019,34.8986 16.1819,34.4139 15.6003,33.7031C 15.0187,32.9923 14.2756,32.0553 13.8071,31.4414C 13.3386,30.8275 13.1447,30.5367 13.1232,30.3375C 13.1017,30.1383 13.2524,30.0306 14.3402,29.1636 Z "/>
		</g>
		<g>
			<path fill="#D56416" fill-opacity="1" stroke-width="0.2" stroke-linejoin="round" d="M 56.8595,23.4459C 56.3047,22.1053 55.5798,21.0363 54.4727,19.8584C 53.3657,18.6807 51.8764,17.3944 50.011,17.0912C 48.1456,16.788 45.904,17.468 44.4521,18.567C 43.0001,19.6659 42.3377,21.184 42.4288,22.8514C 42.52,24.519 43.3646,26.3363 44.1318,27.8451C 44.899,29.3539 45.5887,30.5543 46.1857,31.7719C 46.7828,32.9893 47.2871,34.2236 47.7461,35.5409C 48.2051,36.8583 48.6187,38.2584 48.9538,39.5143C 49.2889,40.7703 49.5455,41.882 49.7733,42.5509C 50.0012,43.2198 50.2003,43.4464 51.6065,43.4148C 53.0127,43.3832 55.6259,43.0934 57.0809,42.8971C 58.5358,42.7007 58.8325,42.5977 59.0871,42.0798C 59.3417,41.5621 59.5543,40.6295 59.4871,38.9462C 59.4199,37.2631 59.0728,34.8292 58.8088,32.8815C 58.545,30.934 58.3643,29.4723 58.0816,27.9354C 57.7989,26.3988 57.4142,24.7867 56.8595,23.4459 Z "/>
			<path fill="#D56416" fill-opacity="1" stroke-width="0.2" stroke-linejoin="round" d="M 57.9492,45.5323C 56.5598,45.5994 53.9654,45.7147 52.601,45.8673C 51.2367,46.02 51.1024,46.2098 51.0546,46.5958C 51.0069,46.9821 51.0457,47.5646 51.1162,48.4847C 51.1868,49.4052 51.2889,50.6632 51.7245,51.7214C 52.1601,52.7797 52.9291,53.6381 53.8498,54.0941C 54.7706,54.5502 55.8431,54.6039 56.9004,54.1835C 57.9576,53.7631 58.9996,52.8687 59.5184,52.1007C 60.0371,51.3329 60.0326,50.6915 60,49.7737C 59.9675,48.8558 59.907,47.6615 59.8535,46.891C 59.8,46.1207 59.7537,45.7743 59.6383,45.6105C 59.5229,45.4467 59.3386,45.4652 57.9492,45.5323 Z "/>
		</g>
	</g>
</svg>
